X: 1
T:THE ALE IS DEAR
M:C
L:1/8
Q:80
C:P/M Norman Gillies
S:Reel
K:HP
|: {gfg}f2{g}e3/2f/2{BG}B2{g}fe|
{g}f/2a3/2e/2a3/2c/2{d}A3/2{g}e3/2c/2|
{gfg}f2{g}e3/2f/2{BG}B2{g}fe|  !
{g}f/2a3/2e3/2c/2{g}B3/2{d}B/2{e}B3/2{d}c/2:| [|
{g}B3/2{d}B/2{e}B3/2{d}c/2{Gdc}d2{gcd}cB|
{g}A3/2{d}A/2{e}A3/2{d}B/2{g}A3/2B/2{g}c/2{d}A3/2|  !
{g}B3/2{d}B/2{e}B3/2{d}c/2{Gdc}d2{gcd}cB|
{GdG}f2{g}ec{g}B3/2{d}B/2{e}B3/2{d}c/2|
{g}B3/2{d}B/2{e}B3/2{d}c/2{Gdc}d2{gcd}cB|  !
{g}A3/2{d}A/2{e}A3/2{d}B/2{g}A3/2B/2{g}c/2{d}A3/2|
{Gdc}d2{g}fd{gcd}c2{g}ec|
{GdG}f2{g}ec{g}B3/2{d}B/2{e}B3/2{d}c/2|]  !
